packages/foundations/assets/icons/functional/images/human/cigarette_disabled_12.svg

<svg width="12" height="12" viewBox="0 0 12 12" fill="none" xmlns="http://www.w3.org/2000/svg">
<g clip-path="url(#clip0_232_249)">
<path fill-rule="evenodd" clip-rule="evenodd" d="M9.83298 1.33805C10.0203 1.15551 10.4087 1.17167 10.625 1.38796C10.8413 1.60425 10.8672 1.97647 10.6749 2.17996L5.64912 7.21199L10.048 7.21222C10.2957 7.21222 10.396 7.24007 10.4938 7.29236C10.5915 7.34466 10.6683 7.42139 10.7206 7.51917C10.746 7.56664 10.7996 7.68652 10.8007 8.08859C10.8018 8.49066 10.7475 8.65497 10.7206 8.70528C10.6683 8.80306 10.5915 8.87979 10.4938 8.93208C10.396 8.98438 10.2957 9.01222 10.048 9.01222L3.84912 9.01199L2.16846 10.6864C1.95348 10.869 1.59274 10.8528 1.37645 10.6365C1.16016 10.4202 1.13065 10.0612 1.32654 9.84449L9.83298 1.33805ZM2.93232 7.21199L1.34472 8.80021C1.20072 8.59126 1.20072 8.53793 1.20072 8.11223C1.20072 7.68652 1.22856 7.61695 1.28086 7.51917C1.33315 7.42139 1.40988 7.34466 1.50766 7.29236C1.60544 7.24007 1.70571 7.21222 1.95348 7.21222L2.93232 7.21199ZM1.71132 1.35032C1.95304 1.12365 2.33274 1.13585 2.55941 1.37757C3.28209 2.14823 3.33218 3.05097 2.71246 3.8892L2.579 4.06396C2.48842 4.1951 2.37368 4.41132 2.48189 4.72927C2.51213 4.81811 2.58503 4.9364 2.70062 5.08414C2.87598 5.32527 2.84842 5.6649 2.6253 5.87413C2.38358 6.1008 2.00388 6.0886 1.77721 5.84688C1.68432 5.74783 1.56897 5.59257 1.4634 5.38493C1.13694 4.74283 1.13056 4.01772 1.62026 3.34136L1.75914 3.16064C2.02665 2.79613 2.00076 2.53612 1.68407 2.19841C1.4574 1.95669 1.4696 1.57699 1.71132 1.35032Z" fill="#1A1C1F"/>
</g>
<defs>
<clipPath id="clip0_232_249">
<rect width="12" height="12" fill="white"/>
</clipPath>
</defs>
</svg>

<svg xmlns="http://www.w3.org/2000/svg" width="12" height="12" fill="none"><g clip-path="url(#a)"><path fill="#1A1C1F" fill-rule="evenodd" d="M9.833 1.338c.187-.182.576-.166.792.05s.242.588.05.792L5.649 7.212h4.399c.248 0 .348.028.446.08a.55.55 0 0 1 .227.227c.025.048.079.168.08.57 0 .402-.053.566-.08.616a.55.55 0 0 1-.227.227c-.098.052-.198.08-.446.08H3.849l-1.68 1.674c-.216.183-.576.167-.793-.05-.216-.216-.245-.575-.05-.792zm-6.9 5.874L1.344 8.8C1.2 8.591 1.2 8.538 1.2 8.112s.028-.495.08-.593a.55.55 0 0 1 .227-.227c.097-.052.198-.08.445-.08zM1.71 1.35a.6.6 0 0 1 .848.028c.723.77.773 1.673.153 2.511l-.133.175a.7.7 0 0 0-.097.665q.045.134.219.355a.6.6 0 0 1-.924.763 2 2 0 0 1-.314-.462c-.326-.642-.332-1.367.157-2.044l.14-.18c.267-.365.24-.625-.076-.963a.6.6 0 0 1 .027-.848" clip-rule="evenodd"/></g><defs><clipPath id="a"><path fill="#fff" d="M0 0h12v12H0z"/></clipPath></defs></svg>
